rospo-icon-theme-classic-common/22x22/apps/com.github.mirkobrombin.football.svg

<svg height="22" width="22" xmlns="http://www.w3.org/2000/svg"><rect fill="#fff" height="19.5" rx="9.75" transform="matrix(0 -1 -1 0 0 0)" width="19.5" x="-20.75" y="-20.75"/><path d="m24 5c-2.598 0-5.129.4918-7.525 1.4629-2.481 1.0059-4.709 2.486-6.6176 4.3941-1.9096 1.909-3.3861 4.137-4.3926 6.618-.9287 2.29-1.4076 4.706-1.4492 7.183.3461 10.772 9.1254 19.342 19.984 19.342s19.638-8.57 19.984-19.342c-.041-2.477-.519-4.893-1.447-7.183-1.006-2.481-2.486-4.709-4.394-6.618-1.909-1.9081-4.133-3.3882-6.616-4.3941-2.396-.9711-4.929-1.4629-7.527-1.4629zm-5.957 2.2441c-.014.0216-.028.0427-.041.0664.023.0172.036.0333.049.0372 1.347.4653 2.571 1.1498 3.726 1.9628l-2.259 6.8085c-.012.003-.025.007-.036.012-.462.191-.933.361-1.388.568-1.877.853-3.707 1.797-5.43 2.93l-4.4609-2.639c.0067-.139.0306-.28.0781-.406.2996-.798.5948-1.601.9336-2.383.2609-.602.5584-1.185.8832-1.754.212-.234.431-.466.658-.693 2.118-2.1181 4.621-3.6205 7.287-4.5099zm13.043.4161c2.242.9125 4.344 2.278 6.16 4.0938 1.652 1.653 2.93 3.54 3.834 5.555-1.119-.77-2.315-1.404-3.572-1.92-.196-.081-.396-.153-.6-.223l-5.892-6.6426c.041-.2868.061-.5736.07-.8632zm-2.414 1.4843c.406-.0049.814.0023 1.224.0313l5.989 6.7482c-.206.651-.409 1.304-.649 1.941-.423 1.118-.875 2.225-1.326 3.334l-8.691.893c-.104-.137-.213-.272-.326-.401-1.027-1.162-2.059-2.318-3.09-3.476.009-.012.018-.021.027-.031-.416-.416-.834-.832-1.25-1.248l2.42-7.2856c.167-.0442.336-.0814.506-.0996 1.315-.1338 2.632-.2851 3.951-.3613.404-.0227.808-.0401 1.215-.045zm-21.192 8.8905 4.5135 2.67v.113c-.011 2.428.234 4.838.725 7.213.001.011.003.018.006.028l-3.5009 5.488c-.0763-.039-.153-.081-.2266-.127-.9633-.605-1.8507-1.301-2.6367-2.121-1.2005-3.378-1.4027-7.036-.6074-10.508.3742-.738.7998-1.446 1.2813-2.125.1486-.209.2861-.427.4453-.631zm26.54 4.428c1.092 1.603 2.127 3.24 3.027 4.961.166.317.331.638.496.963l-4.32 8.058c-.025.006-.05.013-.075.016-2.335.436-4.688.667-7.062.678l-4.311-7.453c.671-1.246 1.335-2.497 1.995-3.748.447-.849.888-1.705 1.328-2.559zm8.648 3.961c-.324 4.312-2.131 8.532-5.422 11.822-.711.711-1.466 1.352-2.256 1.924-.131-1.047-.357-2.074-.676-3.076l4.473-8.344c1.232-.561 2.42-1.196 3.524-1.984.144-.103.264-.217.357-.342zm-29.109 2.689c.077.02.163.041.261.067 2.188.585 4.415 1.002 6.657 1.328.131.018.238.033.332.043l4.193 7.248c-.727 1.022-1.463 2.039-2.215 3.045-.125.167-.258.328-.396.488l-8.928-1.59c-1.045-1.268-1.986-2.61-2.793-4.045-.206-.365-.433-.719-.608-1.099zm1.115 12.133 7.566 1.348c.058.037.116.074.178.105.779.398 1.579.733 2.402 1.006-3.496.152-7.025-.668-10.146-2.459z" opacity=".2" transform="matrix(.50000006 0 0 .49999051 -.999973 -.999935)"/><path d="m22.57 2.648c-4.489 1.82-8.517 4.496-11.971 7.949-3.455 3.454-6.128 7.483-7.949 11.971-1.758 4.336-2.65 8.918-2.65 13.618 0 4.699.892 9.281 2.65 13.615 1.821 4.489 4.495 8.518 7.949 11.971 3.454 3.455 7.481 6.129 11.971 7.949 4.336 1.76 8.917 2.649 13.617 2.649s9.28-.892 13.616-2.649c4.488-1.82 8.518-4.494 11.971-7.949 3.455-3.453 6.129-7.48 7.949-11.971 1.758-4.334 2.648-8.916 2.648-13.615 0-4.7-.891-9.282-2.648-13.618-1.82-4.488-4.496-8.518-7.949-11.971s-7.479-6.129-11.971-7.949c-4.336-1.757-8.916-2.648-13.616-2.648s-9.281.891-13.617 2.648zm-13.526 48.771c-1.743-1.094-3.349-2.354-4.771-3.838-2.172-6.112-2.54-12.729-1.101-19.01.677-1.335 1.447-2.617 2.318-3.845.269-.379.518-.774.806-1.142l8.166 4.832v.205c-.021 4.392.425 8.752 1.313 13.049.003.02.006.031.01.049l-6.333 9.93c-.138-.07-.275-.146-.408-.23zm24.28 16.787c1.409.719 2.858 1.326 4.347 1.82-6.325.275-12.713-1.207-18.36-4.447l13.689 2.439c.105.067.212.131.324.188zm-.05-2.471-16.154-2.879c-1.89-2.295-3.59-4.723-5.051-7.318-.372-.66-.787-1.301-1.102-1.99l6.327-9.92c.14.035.296.072.473.119 3.958 1.059 7.986 1.812 12.042 2.402.237.033.435.062.604.08l7.584 13.113c-1.316 1.85-2.647 3.69-4.007 5.51-.226.303-.466.594-.716.883zm26.876-5.586c-1.286 1.287-2.651 2.447-4.08 3.481-.237-1.894-.646-3.75-1.223-5.563l8.092-15.096c2.229-1.015 4.379-2.166 6.375-3.593.261-.185.478-.392.646-.618-.586 7.801-3.856 15.436-9.81 21.389zm-.359-19.578c.301.574.598 1.154.896 1.742l-7.816 14.58c-.045.01-.088.02-.133.026-4.225.789-8.484 1.209-12.779 1.229l-7.8-13.487c1.214-2.254 2.417-4.517 3.61-6.781.81-1.536 1.606-3.082 2.401-4.627l16.143-1.658c1.977 2.9 3.85 5.862 5.478 8.976zm-3.275-17.294c-.766 2.023-1.586 4.025-2.401 6.031l-15.726 1.615c-.188-.248-.383-.492-.588-.725-1.857-2.103-3.726-4.193-5.592-6.289.017-.021.034-.037.051-.056-.753-.752-1.508-1.504-2.261-2.258l4.378-13.181c.302-.08.606-.147.913-.18 2.38-.242 4.763-.516 7.149-.654 1.461-.082 2.93-.129 4.416-.024l10.832 12.209c-.373 1.178-.737 2.359-1.171 3.512zm3.634-11.056c2.988 2.99 5.302 6.402 6.938 10.047-2.024-1.393-4.188-2.539-6.463-3.473-.354-.146-.717-.275-1.086-.402l-10.662-12.017c.074-.519.113-1.039.129-1.563 4.056 1.651 7.858 4.123 11.144 7.408zm-34.816-8.039c.042.031.062.057.086.064 2.437.842 4.654 2.082 6.744 3.553l-4.09 12.317c-.021.006-.041.012-.061.021-.837.346-1.69.656-2.514 1.031-3.395 1.543-6.705 3.252-9.823 5.301l-8.071-4.775c.012-.252.055-.508.141-.736.542-1.444 1.075-2.896 1.688-4.311.472-1.09 1.01-2.143 1.597-3.172.384-.424.782-.844 1.192-1.254 3.833-3.832 8.363-6.553 13.186-8.162-.025.039-.051.08-.075.123z" fill="#0b9851" transform="matrix(.27635 0 0 .27636 1 1.0001)"/><path d="m11 1.0001c-5.54 0-9.9999 4.46-9.9999 9.9999 0 .084.004.1665.00585.25.13235-5.423 4.5381-9.7499 9.9939-9.7499s9.8619 4.3269 9.9939 9.7499c.002-.08343.0058-.16606.0058-.25 0-5.54-4.46-10-10-10z" fill="#fff" opacity=".1"/><path d="m1.0059 11.2501c-.00205.0835-.00585.166-.00585.25 0 5.54 4.46 9.9999 9.9999 9.9999 5.54 0 9.9999-4.46 9.9999-9.9999 0-.08393-.0038-.16657-.0059-.25-.132 5.423-4.538 9.7499-9.9939 9.7499-5.456 0-9.8619-4.327-9.9939-9.7499z" opacity=".2"/></svg>

<svg xmlns="http://www.w3.org/2000/svg" width="22" height="22" version="1">
 <rect style="fill:#ffffff" width="19.5" height="19.5" x="-20.75" y="-20.75" rx="9.75" ry="9.75" transform="matrix(0,-1,-1,0,0,0)"/>
 <g style="opacity:0.2" transform="matrix(0.27635,0,0,0.27636,1,1.5001)">
  <g>
   <path d="M 24,5 C 21.402,5 18.871,5.4918 16.475,6.4629 13.994,7.4688 11.766,8.9489 9.8574,10.857 7.9478,12.766 6.4713,14.994 5.4648,17.475 4.5361,19.765 4.0572,22.181 4.0156,24.658 4.3617,35.43 13.141,44 23.9996,44 c 10.8586,0 19.638,-8.57 19.984,-19.342 -0.041,-2.477 -0.519,-4.893 -1.447,-7.183 -1.006,-2.481 -2.486,-4.709 -4.394,-6.618 C 36.2336,8.9489 34.0096,7.4688 31.5266,6.4629 29.1306,5.4918 26.5976,5 23.9996,5 Z m -5.957,2.2441 c -0.014,0.0216 -0.028,0.0427 -0.041,0.0664 0.023,0.0172 0.036,0.0333 0.049,0.0372 1.347,0.4653 2.571,1.1498 3.726,1.9628 l -2.259,6.8085 c -0.012,0.003 -0.025,0.007 -0.036,0.012 -0.462,0.191 -0.933,0.361 -1.388,0.568 -1.877,0.853 -3.707,1.797 -5.43,2.93 L 8.2031,16.99 c 0.0067,-0.139 0.0306,-0.28 0.0781,-0.406 0.2996,-0.798 0.5948,-1.601 0.9336,-2.383 0.2609,-0.602 0.5584,-1.185 0.8832,-1.754 0.212,-0.234 0.431,-0.466 0.658,-0.693 2.118,-2.1181 4.621,-3.6205 7.287,-4.5099 z m 13.043,0.4161 c 2.242,0.9125 4.344,2.278 6.16,4.0938 1.652,1.653 2.93,3.54 3.834,5.555 -1.119,-0.77 -2.315,-1.404 -3.572,-1.92 -0.196,-0.081 -0.396,-0.153 -0.6,-0.223 L 31.016,8.5234 c 0.041,-0.2868 0.061,-0.5736 0.07,-0.8632 z m -2.414,1.4843 c 0.406,-0.0049 0.814,0.0023 1.224,0.0313 l 5.989,6.7482 c -0.206,0.651 -0.409,1.304 -0.649,1.941 -0.423,1.118 -0.875,2.225 -1.326,3.334 l -8.691,0.893 c -0.104,-0.137 -0.213,-0.272 -0.326,-0.401 -1.027,-1.162 -2.059,-2.318 -3.09,-3.476 0.009,-0.012 0.018,-0.021 0.027,-0.031 -0.416,-0.416 -0.834,-0.832 -1.25,-1.248 L 23,9.6504 C 23.167,9.6062 23.336,9.569 23.506,9.5508 24.821,9.417 26.138,9.2657 27.457,9.1895 27.861,9.1668 28.265,9.1494 28.672,9.1445 Z M 7.48,18.035 l 4.5135,2.67 0,0.113 c -0.011,2.428 0.234,4.838 0.725,7.213 10e-4,0.011 0.003,0.018 0.006,0.028 L 9.2236,33.547 C 9.1473,33.508 9.0706,33.466 8.997,33.42 8.0337,32.815 7.1463,32.119 6.3603,31.299 5.1598,27.921 4.9576,24.263 5.7529,20.791 6.1271,20.053 6.5527,19.345 7.0342,18.666 7.1828,18.457 7.3203,18.239 7.4795,18.035 Z m 26.54,4.428 c 1.092,1.603 2.127,3.24 3.027,4.961 0.166,0.317 0.331,0.638 0.496,0.963 l -4.32,8.058 c -0.025,0.006 -0.05,0.013 -0.075,0.016 -2.335,0.436 -4.688,0.667 -7.062,0.678 l -4.311,-7.453 c 0.671,-1.246 1.335,-2.497 1.995,-3.748 0.447,-0.849 0.888,-1.705 1.328,-2.559 l 8.922,-0.916 z m 8.648,3.961 c -0.324,4.312 -2.131,8.532 -5.422,11.822 -0.711,0.711 -1.466,1.352 -2.256,1.924 -0.131,-1.047 -0.357,-2.074 -0.676,-3.076 l 4.473,-8.344 c 1.232,-0.561 2.42,-1.196 3.524,-1.984 0.144,-0.103 0.264,-0.217 0.357,-0.342 z m -29.109,2.689 c 0.077,0.02 0.163,0.041 0.261,0.067 2.188,0.585 4.415,1.002 6.657,1.328 0.131,0.018 0.238,0.033 0.332,0.043 l 4.193,7.248 c -0.727,1.022 -1.463,2.039 -2.215,3.045 -0.125,0.167 -0.258,0.328 -0.396,0.488 l -8.928,-1.59 c -1.045,-1.268 -1.986,-2.61 -2.793,-4.045 -0.206,-0.365 -0.433,-0.719 -0.608,-1.099 l 3.497,-5.485 z m 1.115,12.133 7.566,1.348 c 0.058,0.037 0.116,0.074 0.178,0.105 0.779,0.398 1.579,0.733 2.402,1.006 -3.496,0.152 -7.025,-0.668 -10.146,-2.459 z" transform="matrix(1.8093,0,0,1.8092,-7.2371,-9.0463)"/>
  </g>
 </g>
 <g style="fill:#0b9851" transform="matrix(0.27635,0,0,0.27636,1,1.0001)">
  <g>
   <path d="M 22.57,2.648 C 18.081,4.468 14.053,7.144 10.599,10.597 7.144,14.051 4.471,18.08 2.65,22.568 0.892,26.904 0,31.486 0,36.186 c 0,4.699 0.892,9.281 2.65,13.615 1.821,4.489 4.495,8.518 7.949,11.971 3.454,3.455 7.481,6.129 11.971,7.949 4.336,1.76 8.917,2.649 13.617,2.649 4.7,0 9.28,-0.892 13.616,-2.649 4.488,-1.82 8.518,-4.494 11.971,-7.949 3.455,-3.453 6.129,-7.48 7.949,-11.971 1.758,-4.334 2.648,-8.916 2.648,-13.615 0,-4.7 -0.891,-9.282 -2.648,-13.618 C 67.903,18.08 65.227,14.05 61.774,10.597 58.321,7.144 54.295,4.468 49.803,2.648 45.467,0.891 40.887,0 36.187,0 31.487,0 26.906,0.891 22.57,2.648 Z M 9.044,51.419 C 7.301,50.325 5.695,49.065 4.273,47.581 2.101,41.469 1.733,34.852 3.172,28.571 3.849,27.236 4.619,25.954 5.49,24.726 5.759,24.347 6.008,23.952 6.296,23.584 l 8.166,4.832 0,0.205 c -0.021,4.392 0.425,8.752 1.313,13.049 0.003,0.02 0.006,0.031 0.01,0.049 l -6.333,9.93 C 9.314,51.579 9.177,51.503 9.044,51.419 Z m 24.28,16.787 c 1.409,0.719 2.858,1.326 4.347,1.82 -6.325,0.275 -12.713,-1.207 -18.36,-4.447 L 33,68.018 c 0.105,0.067 0.212,0.131 0.324,0.188 z M 33.274,65.735 17.12,62.856 c -1.89,-2.295 -3.59,-4.723 -5.051,-7.318 -0.372,-0.66 -0.787,-1.301 -1.102,-1.99 l 6.327,-9.92 c 0.14,0.035 0.296,0.072 0.473,0.119 3.958,1.059 7.986,1.812 12.042,2.402 0.237,0.033 0.435,0.062 0.604,0.08 l 7.584,13.113 c -1.316,1.85 -2.647,3.69 -4.007,5.51 -0.226,0.303 -0.466,0.594 -0.716,0.883 z M 60.15,60.149 c -1.286,1.287 -2.651,2.447 -4.08,3.481 -0.237,-1.894 -0.646,-3.75 -1.223,-5.563 l 8.092,-15.096 c 2.229,-1.015 4.379,-2.166 6.375,-3.593 0.261,-0.185 0.478,-0.392 0.646,-0.618 -0.586,7.801 -3.856,15.436 -9.81,21.389 z M 59.791,40.571 c 0.301,0.574 0.598,1.154 0.896,1.742 l -7.816,14.58 c -0.045,0.01 -0.088,0.02 -0.133,0.026 -4.225,0.789 -8.484,1.209 -12.779,1.229 l -7.8,-13.487 c 1.214,-2.254 2.417,-4.517 3.61,-6.781 0.81,-1.536 1.606,-3.082 2.401,-4.627 l 16.143,-1.658 c 1.977,2.9 3.85,5.862 5.478,8.976 z M 56.516,23.277 C 55.75,25.3 54.93,27.302 54.115,29.308 l -15.726,1.615 c -0.188,-0.248 -0.383,-0.492 -0.588,-0.725 -1.857,-2.103 -3.726,-4.193 -5.592,-6.289 0.017,-0.021 0.034,-0.037 0.051,-0.056 -0.753,-0.752 -1.508,-1.504 -2.261,-2.258 L 34.377,8.414 C 34.679,8.334 34.983,8.267 35.29,8.234 37.67,7.992 40.053,7.718 42.439,7.58 43.9,7.498 45.369,7.451 46.855,7.556 l 10.832,12.209 c -0.373,1.178 -0.737,2.359 -1.171,3.512 z M 60.15,12.221 c 2.988,2.99 5.302,6.402 6.938,10.047 C 65.064,20.875 62.9,19.729 60.625,18.795 60.271,18.649 59.908,18.52 59.539,18.393 L 48.877,6.376 c 0.074,-0.519 0.113,-1.039 0.129,-1.563 4.056,1.651 7.858,4.123 11.144,7.408 z M 25.334,4.182 c 0.042,0.031 0.062,0.057 0.086,0.064 2.437,0.842 4.654,2.082 6.744,3.553 l -4.09,12.317 c -0.021,0.006 -0.041,0.012 -0.061,0.021 -0.837,0.346 -1.69,0.656 -2.514,1.031 -3.395,1.543 -6.705,3.252 -9.823,5.301 L 7.605,21.694 c 0.012,-0.252 0.055,-0.508 0.141,-0.736 0.542,-1.444 1.075,-2.896 1.688,-4.311 0.472,-1.09 1.01,-2.143 1.597,-3.172 0.384,-0.424 0.782,-0.844 1.192,-1.254 3.833,-3.832 8.363,-6.553 13.186,-8.162 -0.025,0.039 -0.051,0.08 -0.075,0.123 z"/>
  </g>
 </g>
 <path style="opacity:0.1;fill:#ffffff" d="m 11,1.0001 c -5.54,0 -9.9999,4.46 -9.9999,9.9999 0,0.084 0.004,0.1665 0.00585,0.25 0.13235,-5.423 4.5381,-9.7499 9.9939,-9.7499 5.4558,0 9.8619,4.3269 9.9939,9.7499 0.002,-0.08343 0.0058,-0.16606 0.0058,-0.25 0,-5.54 -4.46,-10 -10,-10 z"/>
 <path style="opacity:0.2" d="m 1.0059,11.2501 c -0.00205,0.0835 -0.00585,0.166 -0.00585,0.25 0,5.54 4.46,9.9999 9.9999,9.9999 5.54,0 9.9999,-4.46 9.9999,-9.9999 0,-0.08393 -0.0038,-0.16657 -0.0059,-0.25 -0.132,5.423 -4.538,9.7499 -9.9939,9.7499 -5.456,0 -9.8619,-4.327 -9.9939,-9.7499 z"/>
</svg>
